!!!COM:	Isaac, Heinrich
!!!CDT:	~1450-1517/03/26
!!!OTL:	Credo II
!!!AGN:	Mass; Credo
!!!SCT:	Isa1039
!!!SCA:	Isa1039
!!!voices:	4
**kern	**kern	**kern	**kern
*staff4	*staff3	*staff2	*staff1
*Ivox	*Ivox	*Ivox	*Ivox
*I"Bassus	*I"Tenor	*I"Altus	*I"Discantus
*I'B	*I'T	*I'A	*I'D
*>[A,B,C,D]	*>[A,B,C,D]	*>[A,B,C,D]	*>[A,B,C,D]
*>A	*>A	*>A	*>A
*clefF4	*clefGv2	*clefGv2	*clefG2
*k[b-]	*k[b-]	*k[b-]	*k[b-]
*M2/1	*M2/1	*M2/1	*M2/1
*met(C|)	*met(C|)	*met(C|)	*met(C|)
!!section: Patrem omnipotentem
!!!OMD: Patrem omnipotentem
=1-	=1-	=1-	=1-
0r	0r	1a	0r
.	.	1b-	.
=2	=2	=2	=2
1r	0r	1a	0r
1A	.	2r	.
.	.	2a\	.
=3	=3	=3	=3
1B-	0r	2f\	0r
.	.	2g\	.
2A\	.	2.a\	.
2A\	.	.	.
.	.	4g\	.
=4	=4	=4	=4
2F\	0r	2a\	0r
2G\	.	1b-	.
1E-	.	.	.
.	.	[2g\	.
=5	=5	=5	=5
1D	1d	2g\]	1a
.	.	2f#i\	.
1d	1G	2g\	1b-
.	.	2G/	.
=6	=6	=6	=6
1D	1r	1A	2a/
.	.	.	2a/
2r	1d	2B-\	2f/
2D\	.	[2A/	[2a/
=7	=7	=7	=7
2F\	2c\	2A/]	2a/]
2G\	2B-\	2.d\	1g
1D	1A	.	.
.	.	4e\	.
.	.	2f\	2f#i/
=8	=8	=8	=8
2r	0G	1e	0g
2.G\	.	.	.
.	.	1d	.
4A\	.	.	.
2B-\	.	.	.
=9	=9	=9	=9
4c\	1A	1r	1r
4B-\	.	.	.
4A\	.	.	.
4G\	.	.	.
1A	1c	2.e\	2r
.	.	.	2a/
.	.	4f\	.
=10	=10	=10	=10
1G	1d	2g\	2b-\
.	.	2g\	1dd
1E	2r	2g\	.
.	2e\	2g\	2cc#i\
=11	=11	=11	=11
2D\	2.f\	2f\	1dd
2d\	.	1a	.
.	8e\L	.	.
.	8d\J	.	.
2A\	2f\	.	2r
[2c\	[2e\	4g\	2cc\
.	.	4f\	.
=12	=12	=12	=12
4c\]	2e\]	4e\	2a/
4B-\	.	4d\	.
2G\	1d	1g	2b-\
1A	.	.	2.cc\
.	2c\	2f#i\	.
.	.	.	8b-/L
.	.	.	8a/J
=13	=13	=13	=13
0G	0d	1g	2b-\
.	.	.	1cc
.	.	1r	.
.	.	.	2bni\
=14	=14	=14	=14
0C	0r	2.e\	2cc\
.	.	.	4a/
.	.	4f\	4b-\
.	.	2g\	4cc\
.	.	.	4dd\
.	.	2g\	4ee\
.	.	.	8dd\L
.	.	.	8ee\J
=15	=15	=15	=15
0F	0r	1a	2ff\
.	.	.	2.f/
.	.	2r	.
.	.	.	4g/
.	.	2a\	4a/
.	.	.	4b-\
=16	=16	=16	=16
2.A\	0r	2f\	1cc
.	.	4e\	.
4B-\	.	4d\	.
2c\	.	2e\	1r
2c\	.	2e\	.
=17	=17	=17	=17
1d	0r	2d\	2.a/
.	.	1f	.
.	.	.	4b-\
2r	.	.	2cc\
2c\	.	2e\	2cc\
=18	=18	=18	=18
2B-\	1r	1d	1dd
4A\	.	.	.
4G\	.	.	.
2A\	2.e\	1r	2r
2A\	.	.	2cc\
.	4f\	.	.
=19	=19	=19	=19
2.G\	1.g	0r	2b-\
.	.	.	2.dd\
4A\	.	.	.
4B-\	.	.	.
4c\	.	.	4cc\
2d\	2f\	.	4b-\
.	.	.	4a/
=20	=20	=20	=20
2e\	2.e\	0r	1g
1c	.	.	.
.	4f\	.	.
.	2d\	.	1r
2Bni\	2d\	.	.
=21	=21	=21	=21
1c	0c	0r	1r
2r	.	.	1ee
[2A\	.	.	.
=22	=22	=22	=22
2A\]	1r	0r	1ff
2B-\	.	.	.
1c	1e	.	1ee
=23	=23	=23	=23
2.A\	1f	0r	4cc\
.	.	.	4b-\
.	.	.	4cc\
4B-\	.	.	4dd\
2c\	2e\	.	4ee\
.	.	.	4dd\
[2d\	2d\	.	[2ff\
=24	=24	=24	=24
2d\]	2f\	1r	4ff\]
.	.	.	4ee\
2G\	2g\	.	1dd
1A	2e\	1a	.
.	2e\	.	2cc#i\
=25	=25	=25	=25
2r	1d	1b-	0dd
2.D\	.	.	.
.	2r	1a	.
4E\	.	.	.
4F\	2d\	.	.
4G\	.	.	.
=26	=26	=26	=26
4A\	2.c\	4f\	0r
4G\	.	4e\	.
4A\	.	4f\	.
4B-\	4d\	4g\	.
2c\	2e\	4a\	.
.	.	4g\	.
2d\	[2f\	[2b-\	.
=27	=27	=27	=27
2B-\	2f\]	4b-\]	0r
.	.	4a\	.
2c\	4e\	1g	.
.	4d\	.	.
1A	1c	.	.
.	.	2f#i\	.
=28	=28	=28	=28
1G	1d	1g	2r
.	.	.	2g/
2F\	1r	1r	2a/
2G\	.	.	2b-\
=29	=29	=29	=29
2A\	0r	2e\	2ccni\
2F\	.	2f\	2dd\
2E\	.	1g	4ee\
.	.	.	4dd\
2E\	.	.	[2gg\
=30	=30	=30	=30
1D	1d	1a	2gg\]
.	.	.	2ff#i\
2r	1G	2.g\	1gg
2G\	.	.	.
.	.	4f\	.
=31	=31	=31	=31
1.C	2.c\	1e	2.gg\
.	4d\	.	4ff\
.	2c\	1r	2ee\
4D\	2B-\	.	2dd\
4E\	.	.	.
=32	=32	=32	=32
2F\	2A/	1r	1cc
2E\	2G/	.	.
1D	1F	1f	1r
=33	=33	=33	=33
2E\	2G/	2e\	2r
2D\	2A/	2f\	1dd
1G	1B-	1g	.
.	.	.	2ee\
=34	=34	=34	=34
1D	0A	0a	1ff
1r	.	.	4ee\
.	.	.	4dd\
.	.	.	4cc\
.	.	.	4b-\
=35	=35	=35	=35
1r	1A	2r	4a/
.	.	.	4g/
.	.	2.a\	2.cc\
1A	1c	.	.
.	.	4g\	4b-\
.	.	4f\	[2a/
.	.	4e\	.
=36	=36	=36	=36
1B-	1d	1d	2a/]
.	.	.	2g/
1A	2r	2c\	1a
.	2e\	[2A/	.
=37	=37	=37	=37
2r	2f\	4A/]	0r
.	.	4B-\	.
2A\	2e\	2c\	.
2B-\	2d\	2d\	.
[2A\	[2e\	2c\	.
=38	=38	=38	=38
2A\]	4e\]	1A	2r
.	4d\	.	.
2F\	1d	.	2a/
2G\	.	1r	2b-\
2A\	2c#i\	.	2a/
=39	=39	=39	=39
1D	[0d	2r	1f
.	.	2A/	.
2G\	.	2B-\	2g/
2F\	.	2A/	[2a/
=40	=40	=40	=40
2D\	0d]	2F/	2a/]
2G\	.	2G/	2g/
1D	.	2A/	2g/
.	.	2A/	2f#i/
=41	=41	=41	=41
2.E\	0r	1G	1g
4F\	.	.	.
2G\	.	1r	2ee\
2A\	.	.	2ff\
=42	=42	=42	=42
2G\	1r	2.e\	2.gg\
2C/	.	.	.
.	.	4f\	4ff\
1c	2.e\	1g	4ee\
.	.	.	4dd\
.	.	.	[2ee\
.	4f\	.	.
=43	=43	=43	=43
0r	2g\	1e	2ee\]
.	2f\	.	1dd
.	1e	1g	.
.	.	.	2cc#i\
=44	=44	=44	=44
1r	0d	0a	1dd
2r	.	.	2r
[2D\	.	.	[2ff\
=45	=45	=45	=45
4D\]	1d	1a	4ff\]
4E\	.	.	4ee\
2F\	.	.	4dd\
.	.	.	4cc\
1G	1G	1b-	4b-\
.	.	.	4a/
.	.	.	2g/
=46	=46	=46	=46
4D\	1d	2a\	1f
4E\	.	.	.
4F\	.	2a\	.
4G\	.	.	.
2A\	2c\	2f\	1r
2B-\	2d\	2g\	.
=47	=47	=47	=47
2A\	2c\	2a\	0r
1d	2B-\	1g	.
.	1A	.	.
2c\	.	2f#i\	.
=48	=48	=48	=48
2B-\	2r	1g	0r
2G\	2G/	.	.
2.A\	4F/	1r	.
.	4G/	.	.
.	4A/	.	.
4G\	4B-\	.	.
=49	=49	=49	=49
4F\	2c\	1r	0r
4E\	.	.	.
2D\	2d\	.	.
1E	2d\	2r	.
.	2c#i\	2g\	.
=50	=50	=50	=50
1D	1d	2.f\	2r
.	.	.	2dd\
.	.	4g\	.
2r	1r	1a	2.cc\
2A\	.	.	.
.	.	.	4dd\
=51	=51	=51	=51
2c\	1r	1g	2ee\
2d\	.	.	1dd
1e	2r	2r	.
.	2e\	2g\	2cc#i\
=52	=52	=52	=52
1d	2.f\	2f\	1dd
.	.	1a	.
.	8e\L	.	.
.	8d\J	.	.
1r	2f\	.	1r
.	2e\	2g\	.
=53	=53	=53	=53
0r	2A/	2f\	0r
.	1d	4e\	.
.	.	4d\	.
.	.	2e\	.
.	2c#i\	2e\	.
=54	=54	=54	=54
2r	0d	1d	2r
1d	.	.	1dd
.	.	1f	.
2B-\	.	.	2dd\
=55	=55	=55	=55
2c\	0r	2e\	2cc\
2d\	.	2f\	2a/
1G	.	1g	2.b-\
.	.	.	8a/L
.	.	.	8g/J
=56	=56	=56	=56
0D	0r	1a	2f/
.	.	.	2.d/
.	.	2r	.
.	.	.	4e/
.	.	2a\	4f/
.	.	.	4g/
=57	=57	=57	=57
0r	0r	2f\	2a/
.	.	2g\	2b-\
.	.	2.a\	2.cc\
.	.	4g\	8dd\L
.	.	.	8ee\J
=58	=58	=58	=58
1r	0r	4f\	2.ff\
.	.	4e\	.
.	.	2.d\	.
.	.	.	4ee\
2r	.	.	2.dd\
.	.	4c\	.
[2d\	.	4B-\	.
.	.	4A/	4cc\
=59	=59	=59	=59
2d\]	0r	2G/	4b-\
.	.	.	4a/
2B-\	.	1g	2g/
2c\	.	.	1a
2d\	.	2f#i\	.
=60	=60	=60	=60
2.G\	1r	2g\	0g
.	.	2d\	.
4A\	.	.	.
4G\	2r	2.g\	.
4F\	.	.	.
4E\	2c\	.	.
4D\	.	4f\	.
=61	=61	=61	=61
2C/	4c\	4e\	0r
.	4B-\	4d\	.
2.c\	4A/	4c\	.
.	4G/	4B-\	.
.	1F	4A/	.
4d\	.	4G/	.
4c\	.	2A/	.
4B-\	.	.	.
=62	=62	=62	=62
4A\	1A	1F	2r
4G\	.	.	.
2F\	.	.	2a/
2BB-/	2B-\	2r	2f/
2F\	2c\	2A/	2a/
=63	=63	=63	=63
2G\	2B-\	2B-\	2d/
2E\	2G/	2c\	1g
1D	1A	2.d\	.
.	.	.	2f#i/
.	.	4c\	.
=64	=64	=64	=64
2E\	[0Gl	4B-\	[0gl
.	.	4G/	.
2C/	.	1c	.
1G	.	.	.
.	.	2Bni\	.
=65	=65	=65	=65
0Cl	0G]	0cl	0g]
!!LO:LB:i:g=z
=66||	=66||	=66||	=66||
*>B	*>B	*>B	*>B
*clefF4	*clefGv2	*clefGv2	*clefG2
*k[b-]	*k[b-]	*k[b-]	*k[b-]
*M2/1	*M2/1	*M2/1	*M2/1
*met(C|)	*met(C|)	*met(C|)	*met(C|)
!!section: Genitum non factum
!!!OMD: Genitum non factum
2.c\	0r	0r	0r
4c\	.	.	.
2d\	.	.	.
2d\	.	.	.
=67	=67	=67	=67
1c	0r	2.g\	1r
.	.	4g\	.
1A	.	2a\	2.cc\
.	.	2a\	.
.	.	.	4cc\
=68	=68	=68	=68
0r	0r	1g	2dd\
.	.	.	2dd\
.	.	1e	1cc
=69	=69	=69	=69
0r	0r	2r	1a
.	.	1f	.
.	.	.	2r
.	.	2d\	[2b-\
=70	=70	=70	=70
0r	0r	1e	2b-\]
.	.	.	2g/
.	.	1f	1a
=71	=71	=71	=71
0r	0r	1g	1b-
.	.	2e\	1cc
.	.	2f\	.
=72	=72	=72	=72
2r	2r	2g\	2b-\
2D\	2d\	2.a\	1a
2A\	2c\	.	.
.	.	4f\	.
2B-\	2d\	2g\	[2dd\
=73	=73	=73	=73
1A	1e	1.a	2dd\]
.	.	.	2cc#i\
1D	1f	.	1dd
.	.	2f\	.
=74	=74	=74	=74
1r	2e\	2g\	0r
.	1d	2d\	.
1A	.	1e	.
.	2c#i\	.	.
=75	=75	=75	=75
1B-	[0d	1d	1r
1F	.	1r	1a
=76	=76	=76	=76
1G	0d_	2r	1b-
.	.	2g\	.
1D	.	4f\	1a
.	.	4e\	.
.	.	4d\	.
.	.	4c\	.
=77	=77	=77	=77
2r	0d]	2B-\	2r
2D\	.	2A/	2a/
2.G\	.	2G/	4b-\
.	.	.	4a/
.	.	2d\	4b-\
4F\	.	.	4a/
=78	=78	=78	=78
2G\	2.d\	2g\	2b-\
2D\	.	1f	1a
.	4d\	.	.
2F\	2c\	.	.
2G\	2B-\	2e\	2g/
=79	=79	=79	=79
2D\	2A/	2d\	2f/
2E\	2G/	2c\	1g
1D	1A	1d	.
.	.	.	2f#i/
=80	=80	=80	=80
2r	1G	1r	1g
1d	.	.	.
.	1F	1a	1r
2c\	.	.	.
=81	=81	=81	=81
2B-\	1G	1b-	0r
4A\	.	.	.
4G\	.	.	.
2.F\	2A/	1a	.
.	2A/	.	.
4G\	.	.	.
=82	=82	=82	=82
1A	1c	2r	0r
.	.	2a\	.
1D	2d\	4b-\	.
.	.	4a\	.
.	2d\	4b-\	.
.	.	4a\	.
=83	=83	=83	=83
2G\	2d\	2b-\	0r
2F\	2.f\	2a\	.
1D	.	2f\	.
.	4e\	.	.
.	2d\	[2a\	.
=84	=84	=84	=84
1r	4c\	4a\]	0r
.	4B-\	4d\	.
.	4A/	1g	.
.	4G/	.	.
2r	1A	.	.
2c\	.	2f#i\	.
=85	=85	=85	=85
2d\	1G	1g	1dd
2G\	.	.	.
1A	1r	1e	1cc
=86	=86	=86	=86
1r	0r	2f\	1dd
.	.	1g	.
2r	.	.	1ee
2c\	.	2a\	.
=87	=87	=87	=87
2d\	0r	2f\	2ff\
2G\	.	2g\	1dd
1A	.	2e\	.
.	.	2e\	2cc#i\
=88	=88	=88	=88
1D	1d	1d	1dd
1E	1c	1r	1r
=89	=89	=89	=89
2F\	1d	0r	0r
1G	.	.	.
.	2e\	.	.
2A\	[2f\	.	.
=90	=90	=90	=90
2F\	4f\]	0r	0r
.	4e\	.	.
2G\	1d	.	.
2E\	.	.	.
2E\	2c#i\	.	.
=91	=91	=91	=91
0D	0d	1r	2r
.	.	.	2b-\
.	.	1f	2a/
.	.	.	2b-\
=92	=92	=92	=92
0r	0r	2e\	2cc\
.	.	2f\	2a/
.	.	1g	2r
.	.	.	2b-\
=93	=93	=93	=93
0r	0r	2e\	2cc\
.	.	2f\	2a/
.	.	1g	2b-\
.	.	.	[2g/
=94	=94	=94	=94
1G	0r	1g	4g/]
.	.	.	4a/
.	.	.	4b-\
.	.	.	4cc\
2G\	.	2r	2dd\
2G\	.	2g\	[2b-\
=95	=95	=95	=95
1G	1r	2g\	4b-\]
.	.	.	4cc\
.	.	2g\	4dd\
.	.	.	4ee\
2.D\	1d	2f\	2ff\
.	.	[2a\	[2dd\
4E\	.	.	.
=96	=96	=96	=96
2F\	2d\	2a\]	4dd\]
.	.	.	4cc\
2G\	2d\	1g	2b-\
1D	1d	.	1a
.	.	2f#i\	.
=97	=97	=97	=97
2.E\	1G	2g\	0g
.	.	2.G/	.
4D\	.	.	.
4E\	2r	.	.
4F\	.	4A/	.
[2G\	2G/	4B-\	.
.	.	4c\	.
=98	=98	=98	=98
2G\]	4A/	4d\	0r
.	4G/	4e\	.
2F\	1c	2f\	.
1G	.	2d\	.
.	2B-\	4g\	.
.	.	4f\	.
=99	=99	=99	=99
1C	1c	4e\	2r
.	.	4d\	.
.	.	4c\	2g/
.	.	4B-\	.
1r	2r	4A/	2a/
.	.	4G/	.
.	2c\	2A/	[2cc\
=100	=100	=100	=100
2r	1d	2G/	2cc\]
2G\	.	2g\	2bni\
1A	4c\	2e\	1cc
.	4B-\	.	.
.	4A/	2f\	.
.	4G/	.	.
=101	=101	=101	=101
2G\	2B-\	2g\	2r
2F\	2.A/	2d\	2dd\
2E\	.	1e	4cc\
.	4G/	.	4b-\
2C/	[2G/	.	4a/
.	.	.	4g/
=102	=102	=102	=102
1D	2G/]	1d	4b-\
.	.	.	4a/
.	2F/	.	4a/
.	.	.	8g/L
.	.	.	8a/J
2G\	2G/	2r	2b-\
2F\	2A/	2d\	[2a/
=103	=103	=103	=103
2E\	2B-\	1e	4a/]
.	.	.	4g/
2C/	2c\	.	1g
1D	1A	1d	.
.	.	.	2f#i/
=104	=104	=104	=104
2G\	2G/	1r	1g
2C/	1c	.	.
1D	.	1f	1r
.	2Bni\	.	.
=105	=105	=105	=105
1C	1c	2.e\	1cc
.	.	4f\	.
1r	1G	2g\	2.b-\
.	.	2g\	.
.	.	.	4cc\
=106	=106	=106	=106
0r	0r	1g	2dd\
.	.	.	2dd\
.	.	2r	1dd
.	.	2g\	.
=107	=107	=107	=107
0r	0r	2a\	2r
.	.	2f\	2dd\
.	.	2g\	2ee\
.	.	2e\	2cc\
=108	=108	=108	=108
1r	0r	2.f\	2.dd\
.	.	4e\	4cc\
2r	.	4d\	4b-\
.	.	4c\	4a/
[2G\	.	[2d\	[2b-\
=109	=109	=109	=109
4G\]	1r	4d\]	2b-\]
4A\	.	4A/	.
2F\	.	2c\	1a
1G	2r	1B-	.
.	2g\	.	2g/
=110	=110	=110	=110
1D	2.f\	0A	2a/
.	.	.	1dd
.	4g\	.	.
2A\	2f\	.	.
2A\	2e\	.	2cc\
=111	=111	=111	=111
0D	1d	[0a	2.dd\
.	.	.	4cc\
.	2r	.	4dd\
.	.	.	4ee\
.	2d\	.	[2ff\
=112	=112	=112	=112
1r	1f	0a]	4ff\]
.	.	.	4ee\
.	.	.	1dd
1A	1e	.	.
.	.	.	2cc#i\
=113	=113	=113	=113
1.B-	1.d	0r	1dd
.	.	.	1r
2A\	2e\	.	.
=114	=114	=114	=114
2F\	4f\	1r	0r
.	4d\	.	.
2G\	1g	.	.
1A	.	1a	.
.	2f#i\	.	.
=115	=115	=115	=115
0G	0g	1b-	2r
.	.	.	1dd
.	.	1b-	.
.	.	.	2ee\
=116	=116	=116	=116
0r	1r	1a	2.ff\
.	.	.	4ee\
.	2r	2f\	4dd\
.	.	.	4cc\
.	[2f\	[2a\	[2dd\
=117	=117	=117	=117
1r	2f\]	2a\]	2dd\]
.	2e\	2g\	1cc
1G	1d	1g	.
.	.	.	2bni\
=118	=118	=118	=118
2.A\	[0c	0r	2.cc\
4G\	.	.	4b-\
4A\	.	.	4a/
4B-\	.	.	4g/
[2c\	.	.	[2a/
=119	=119	=119	=119
4c\]	0c]	1r	4a/]
4B-\	.	.	4g/
4A\	.	.	1g
4G\	.	.	.
1A	.	1a	.
.	.	.	2f#i/
=120	=120	=120	=120
0G	1r	1b-	0g
.	1B-	1b-	.
=121	=121	=121	=121
1D	0d	1a	0r
2r	.	2f\	.
2D\	.	[2a\	.
=122	=122	=122	=122
2F\	0c	4a\]	0a
.	.	4g\	.
2G\	.	1g	.
1A	.	.	.
.	.	2f#i\	.
=123	=123	=123	=123
1G	1r	1g	0b-
1D	1d	1r	.
=124	=124	=124	=124
1F	1c	2r	1a
.	.	2A/	.
1BB-	1d	1B-	2.f/
.	.	.	4g/
=125	=125	=125	=125
1F	1c	1A	1a
1G	1B-	[1d	2.d/
.	.	.	4e/
=126	=126	=126	=126
0D	0A	1d]	4f/
.	.	.	4d/
.	.	.	1g
.	.	1d	.
.	.	.	2f#i/
=127	=127	=127	=127
1G	0r	1d	1g
1A	.	1r	1cc
=128	=128	=128	=128
1G	0r	1r	1dd
1E	.	1g	1cc
=129	=129	=129	=129
2F\	0r	1a	2a/
2F\	.	.	1cc
2.E\	.	1g	.
.	.	.	4b-\
4F\	.	.	4a/
=130	=130	=130	=130
1G	1G	1e	1g
1A	1F	2f\	1r
.	.	2f\	.
=131	=131	=131	=131
2r	2G/	2e\	0r
2D\	2A/	2f\	.
1G	1B-	1g	.
=132	=132	=132	=132
1F	0A	0a	2r
.	.	.	1f
1D	.	.	.
.	.	.	2f/
=133	=133	=133	=133
0r	2.c\	0r	2.e/
.	4d\	.	4f/
.	4e\	.	2g/
.	4d\	.	.
.	2f\	.	2a/
=134	=134	=134	=134
1r	2e\	0r	2g/
.	1d	.	2f/
1A	.	.	1e
.	2c#i\	.	.
=135	=135	=135	=135
1B-	1d	1r	2d/
.	.	.	2dd\
2A\	1r	1a	2ee\
2F\	.	.	2ff\
=136	=136	=136	=136
2G\	0r	1b-	2dd\
2G\	.	.	2ee\
1D	.	2a\	1ff
.	.	2a\	.
=137	=137	=137	=137
1d	0r	4a\	1dd
.	.	4g\	.
.	.	4f\	.
.	.	4e\	.
2B-\	.	2d\	1r
4c\	.	4e\	.
4B-\	.	4d\	.
=138	=138	=138	=138
4c\	0r	4e\	0r
4G\	.	4d\	.
2B-\	.	1g	.
1A	.	.	.
.	.	2f#i\	.
=139	=139	=139	=139
1G	1d	1g	2r
.	.	.	2.dd\
1r	2.G/	1r	.
.	.	.	4cc\
.	.	.	4b-\
.	4A/	.	4a/
=140	=140	=140	=140
1r	2B-\	0r	2g/
.	1c	.	1a
2r	.	.	.
2G\	2B-\	.	2g/
=141	=141	=141	=141
2A\	2A/	1a	2c/
1c	2F/	.	1f
.	1G	1b-	.
2B-\	.	.	2e/
=142	=142	=142	=142
2.c\	0F	1a	2.f/
4B-\	.	.	4g/
4A\	.	2r	4a/
4G\	.	.	4b-\
[2F\	.	[2a\	2cc\
=143	=143	=143	=143
4F\]	0r	4a\]	2a/
4E\	.	4g\	.
4D\	.	4f\	1dd
4C/	.	4e\	.
2BB-/	.	4f\	.
.	.	4d\	.
[2F\	.	[2a\	[2cc\
=144	=144	=144	=144
2F\]	2r	2a\]	4cc\]
.	.	.	4b-\
2G\	1B-	2.g\	2g/
1D	.	.	1dd
.	.	4f#i\	.
.	2A/	4f#i\	.
.	.	8e\L	.
.	.	8f#i\J	.
=145	=145	=145	=145
2.G\	2.B-\	2g\	2r
.	.	2.d\	2b-\
4A\	4A/	.	.
2G\	2B-\	.	2g/
.	.	4e\	.
2F\	[2c\	2f\	[2a/
=146	=146	=146	=146
2C/	4c\]	2e\	4a/]
.	4B-\	.	4g/
2E\	4A/	2c\	1g
.	4G/	.	.
1D	2A/	1d	.
.	2A/	.	2f#i/
=147	=147	=147	=147
0Gl	0Gl	0dl	0gl
!!LO:LB:i:g=z
=148||	=148||	=148||	=148||
*>C	*>C	*>C	*>C
*clefF4	*clefGv2	*clefGv2	*clefG2
*k[b-]	*k[b-]	*k[b-]	*k[b-]
*M2/1	*M2/1	*M2/1	*M2/1
*met(C|)	*met(C|)	*met(C|)	*met(C|)
!!section: Et resurrexit
!!!OMD: Et resurrexit
1G	0r	0r	0r
1G	.	.	.
=149	=149	=149	=149
1A	0r	1r	0r
1G	.	2r	.
.	.	2g\	.
=150	=150	=150	=150
1E	0r	1g	0r
1F	.	1a	.
=151	=151	=151	=151
2.E\	0r	1g	2r
.	.	.	2g/
4F\	.	.	.
1G	.	1e	1g
=152	=152	=152	=152
1D	0r	1f	1a
1r	.	2.e\	1g
.	.	4f\	.
=153	=153	=153	=153
1r	0r	1g	1e
2r	.	2a\	1f
2D\	.	2d\	.
=154	=154	=154	=154
2A\	1r	2c\	2e/
2F\	.	2A/	2f/
1G	1g	1B-	1g
=155	=155	=155	=155
1D	1f	2r	1a
.	.	2A/	.
2r	2.d\	1B-	1r
2G\	.	.	.
.	4e\	.	.
=156	=156	=156	=156
2F\	2f\	2A/	1r
2E\	1g	2G/	.
1D	.	1A	1a
.	2f#i\	.	.
=157	=157	=157	=157
2r	2g\	1G	1b-
2G\	1d	.	.
2D\	.	1r	1a
[2F\	2d\	.	.
=158	=158	=158	=158
4F\]	1f	2r	1a
4E\	.	.	.
4D\	.	2A/	.
4C/	.	.	.
4BB-/	2r	1B-	4d/
4C/	.	.	4e/
4D\	[2f\	.	4f/
4E\	.	.	4g/
=159	=159	=159	=159
4F\	2f\]	1A	4a/
4G\	.	.	4b-\
4A\	1e	.	4cc\
4B-\	.	.	4b-\
2c\	.	2r	4a/
.	.	.	4g/
2F\	[2d\	2A/	[2a/
=160	=160	=160	=160
2D\	2d\]	2F/	4a/]
.	.	.	4g/
2E\	2c\	2G/	1g
1D	1d	1A	.
.	.	.	2f#i/
=161	=161	=161	=161
2E\	2r	1G	0g
2C/	2c\	.	.
1G	1d	2r	.
.	.	2G/	.
=162	=162	=162	=162
1C	2.c\	4A/	0r
.	.	4G/	.
.	.	4A/	.
.	4B-\	4B-\	.
1r	4A/	4c\	.
.	4G/	4B-\	.
.	[2A/	4c\	.
.	.	4d\	.
=163	=163	=163	=163
0r	2A/]	4e\	0r
.	.	4d\	.
.	1G	4e\	.
.	.	4f\	.
.	.	2g\	.
.	2F/	2a\	.
=164	=164	=164	=164
1r	2G/	2d\	0r
.	2B-\	1g	.
1D	1A	.	.
.	.	2f#i\	.
=165	=165	=165	=165
*M3/1	*M3/1	*M3/1	*M3/1
*met(3)	*met(3)	*met(3)	*met(3)
0E	0G	0g	0g
1F	1r	1r	1a
=166	=166	=166	=166
2G\	1G	0.r	1b-
2B-\	.	.	.
1A	1A	.	1cc
1G	1B-	.	1dd
=167	=167	=167	=167
1C	0c	0e	1cc
1c	.	.	0a
1A	1c	1f	.
=168	=168	=168	=168
1G	1B-	0g	1b-
1E	0c	.	1g
1A	.	1e	1cc
=169	=169	=169	=169
1D	[0.d	1f	1a
0G	.	0g	2b-\
.	.	.	2cc\
.	.	.	2dd\
.	.	.	2ee\
=170	=170	=170	=170
0D	0.d]	0a	0ff
1r	.	1r	1r
=171	=171	=171	=171
0D	1r	0a	0ff
.	1r	.	.
[1G	1d	[1b-	[1gg
=172	=172	=172	=172
1G]	1e	1b-]	1gg]
1F	1f	1a	1cc
1A	1e	1a	1cc
=173	=173	=173	=173
1B-	1d	1f	1dd
1.c	1.e	1.a	1cc
.	.	.	1a
2B-\	2d\	2g\	.
=174	=174	=174	=174
1G	0d	1g	1b-
0A	.	1g	0cc
.	1c	1f#i	.
=175	=175	=175	=175
*M2/1	*M2/1	*M2/1	*M2/1
*met(C|)	*met(C|)	*met(C|)	*met(C|)
1G	1d	0g	2b-\
.	.	.	2.dd\
1r	1G	.	.
.	.	.	4g/
.	.	.	2b-\
=176	=176	=176	=176
2.A\	0r	0r	1a
4B-\	.	.	.
2c\	.	.	1g
2c\	.	.	.
=177	=177	=177	=177
2c\	0r	2.e\	0r
2c\	.	.	.
.	.	4f\	.
2c\	.	2g\	.
2B-\	.	2g\	.
=178	=178	=178	=178
1c	0r	2g\	0r
.	.	2g\	.
2r	.	2g\	.
2d\	.	2f\	.
=179	=179	=179	=179
2.c\	0r	1g	0r
4B-\	.	.	.
1A	.	2r	.
.	.	2a\	.
=180	=180	=180	=180
2B-\	0r	2.g\	0r
2G\	.	.	.
.	.	4f\	.
2.A\	.	2e\	.
.	.	[2a\	.
4B-\	.	.	.
=181	=181	=181	=181
4c\	0r	2a\]	0r
4d\	.	.	.
4e\	.	2.g\	.
4d\	.	.	.
4e\	.	.	.
4A\	.	4a\	.
[2d\	.	4f\	.
.	.	4d\	.
=182	=182	=182	=182
2d\]	1g	1e	0r
2c#i\	.	.	.
1d	2.f\	2d\	.
.	.	2a\	.
.	4e\	.	.
=183	=183	=183	=183
1r	2d\	4b-\	0r
.	.	4a\	.
.	2c\	4a\	.
.	.	8g\L	.
.	.	8a\J	.
2r	2B-\	2b-\	.
2A\	2c\	2a\	.
=184	=184	=184	=184
4B-\	2d\	2r	0r
4A\	.	.	.
4A\	2c\	2f\	.
8G\L	.	.	.
8A\J	.	.	.
2B-\	2d\	2g\	.
[2A\	2e\	[2a\	.
=185	=185	=185	=185
2A\]	2f\	2a\]	1r
2F\	1d	2d\	.
2G\	.	1e	2r
2A\	2c#i\	.	2a/
=186	=186	=186	=186
1D	[0d	1d	4b-\
.	.	.	4a/
.	.	.	4a/
.	.	.	8g/L
.	.	.	8a/J
2r	.	2r	2b-\
2D\	.	2A/	2a/
=187	=187	=187	=187
2G\	0d]	4B-\	1r
.	.	4A/	.
2D\	.	4A/	.
.	.	8G/L	.
.	.	8A/J	.
2G\	.	2B-\	2r
2F\	.	2A/	2a/
=188	=188	=188	=188
1D	2r	1r	4b-\
.	.	.	4a/
.	1d	.	4a/
.	.	.	8g/L
.	.	.	8a/J
2r	.	2r	2b-\
2F\	2c\	2A/	[2a/
=189	=189	=189	=189
1G	1B-	2d\	2a/]
.	.	2e\	2g/
2D\	1A	1f	1a
2F\	.	.	.
=190	=190	=190	=190
2E\	1G	2r	0r
2C/	.	2e\	.
4D\	4F/	1f	.
4E\	4G/	.	.
4F\	4A/	.	.
4G\	4B-\	.	.
=191	=191	=191	=191
2A\	2c\	2e\	1r
2B-\	2d\	2d\	.
1A	2d\	1e	2r
.	2c#i\	.	2a/
=192	=192	=192	=192
1D	[0d	1d	4b-\
.	.	.	4a/
.	.	.	4a/
.	.	.	8g/L
.	.	.	8a/J
2r	.	2r	2b-\
2D\	.	2A/	2a/
=193	=193	=193	=193
2G\	0d_	4B-\	1r
.	.	4A/	.
2D\	.	4A/	.
.	.	8G/L	.
.	.	8A/J	.
2G\	.	2B-\	2r
2F\	.	2A/	2a/
=194	=194	=194	=194
1D	0d_	2r	4b-\
.	.	.	4a/
.	.	2A/	4a/
.	.	.	8g/L
.	.	.	8a/J
2G\	.	2G/	2b-\
2F\	.	2A/	[2a/
=195	=195	=195	=195
1G	0d]	2.B-\	4a/]
.	.	.	4g/
.	.	.	1g
.	.	4c\	.
1D	.	1A	.
.	.	.	2f#i/
=196	=196	=196	=196
0r	0r	1G	0g
.	.	2.e\	.
.	.	4f\	.
=197	=197	=197	=197
2.E\	0r	1g	0r
4F\	.	.	.
1G	.	1g	.
=198	=198	=198	=198
1G	2.d\	2r	0r
.	.	2g\	.
.	4c\	.	.
2r	2d\	2f\	.
2G\	2e\	2g\	.
=199	=199	=199	=199
2.D\	1.f	2a\	0r
.	.	2b-\	.
4E\	.	.	.
2F\	.	2a\	.
[2G\	[2e\	[2g\	.
=200	=200	=200	=200
4G\]	4e\]	2g\]	0r
4F\	4d\	.	.
2D\	1d	2f\	.
1E	.	1g	.
.	2c#i\	.	.
=201	=201	=201	=201
1D	0d	0r	2r
.	.	.	1dd
2r	.	.	.
2G\	.	.	2g/
=202	=202	=202	=202
2G\	2r	1r	1a
2F\	1d	.	.
2.G\	.	2r	1b-
.	2G/	[2e\	.
4B-\	.	.	.
=203	=203	=203	=203
1A	1A	2e\]	1cc
.	.	2f\	.
1G	1B-	2g\	1r
.	.	2g\	.
=204	=204	=204	=204
0C	[0c	1g	2r
.	.	.	2.cc\
.	.	2r	.
.	.	.	4dd\
.	.	2g\	2ee\
=205	=205	=205	=205
1F	0c]	1a	1ff
2C/	.	2.g\	2gg\
[2c\	.	.	[2ee\
.	.	4f\	.
=206	=206	=206	=206
4c\]	2r	1e	4ee\]
4B-\	.	.	4dd\
2A\	2c\	.	1cc
1G	1d	2r	.
.	.	[2g\	2bni\
=207	=207	=207	=207
1C	2.c\	4g\]	2cc\
.	.	4f\	.
.	.	4e\	1ee
.	4B-\	4d\	.
1r	1A	1c	.
.	.	.	2ff\
=208	=208	=208	=208
0r	2.G/	2d\	1.gg
.	.	2c\	.
.	4A/	.	.
.	2B-\	2d\	.
.	[2c\	[2e\	2gg\
=209	=209	=209	=209
0r	2c\]	2e\]	1gg
.	4B-\	4d\	.
.	4A/	4c\	.
.	1G	2d\	2r
.	.	2e\	2g/
=210	=210	=210	=210
0r	1.F	2f\	2.a/
.	.	1a	.
.	.	.	4b-\
.	.	.	4cc\
.	.	.	4dd\
.	2G/	2g\	[2ee\
=211	=211	=211	=211
0r	2A/	2f\	2ee\]
.	2B-\	2d\	1dd
.	1A	1e	.
.	.	.	2cc#i\
=212	=212	=212	=212
2r	2B-\	1d	1dd
2G\	2G/	.	.
2F\	2A/	2r	2r
2G\	2B-\	2e\	2g/
=213	=213	=213	=213
2D\	2A/	2f\	2a/
2.G\	1G	2.e\	2b-\
.	.	.	2g/
4F\	.	4d\	.
2D\	2F/	[2d\	[2a/
=214	=214	=214	=214
1E	1G	2d\]	4a/]
.	.	.	4g/
.	.	2c\	1g
1D	1A	2.d\	.
.	.	.	2f#i/
.	.	4c\	.
=215	=215	=215	=215
2E\	[0G	4B-\	1g
.	.	4G/	.
2C/	.	1c	.
1G	.	.	1r
.	.	2Bni\	.
=216	=216	=216	=216
1C	0G_	1c	2.e/
.	.	.	4f/
1r	.	2.B-\	2g/
.	.	.	2g/
.	.	4c\	.
=217	=217	=217	=217
0r	0G]	2d\	2g/
.	.	2d\	2g/
.	.	2d\	1g
.	.	2d\	.
=218	=218	=218	=218
0r	2r	1d	4f/
.	.	.	4g/
.	2d\	.	4a/
.	.	.	4b-\
.	2e\	2c\	2cc\
.	2f\	2d\	2a/
=219	=219	=219	=219
2r	2.d\	2.B-\	2d/
2G\	.	.	1g
.	4e\	4c\	.
2c\	1c	1A	.
2F\	.	.	2f#i/
=220	=220	=220	=220
1.B-	[0dl	[0Gl	[0gl
2G\	.	.	.
=221	=221	=221	=221
0Gl	0d]	0G]	0g]
!!LO:LB:i:g=z
=222||	=222||	=222||	=222||
*>D	*>D	*>D	*>D
*clefF4	*clefGv2	*clefGv2	*clefG2
*k[b-]	*k[b-]	*k[b-]	*k[b-]
*M2/1	*M2/1	*M2/1	*M2/1
*met(C|)	*met(C|)	*met(C|)	*met(C|)
!!section: Qui cum Patre
!!!OMD: Qui cum Patre
1E	0r	0r	0r
1F	.	.	.
=223	=223	=223	=223
1G	1d	0r	0r
1G	1B-	.	.
=224	=224	=224	=224
0A	0c	1e	0r
.	.	1f	.
=225	=225	=225	=225
2.G\	1d	1g	0r
4F\	.	.	.
2E\	2e\	2g\	.
2D\	[2f\	[2a\	.
=226	=226	=226	=226
2.F\	4f\]	4a\]	0r
.	4e\	4g\	.
.	1d	2f\	.
4G\	.	.	.
2A\	.	2e\	.
2A\	2c#i\	2e\	.
=227	=227	=227	=227
1D	0d	1d	1.dd
2r	.	1r	.
[2D\	.	.	2dd\
=228	=228	=228	=228
4D\]	0r	2f\	1dd
4E\	.	.	.
4F\	.	2f\	.
4G\	.	.	.
1A	.	2.e\	1cc
.	.	4f\	.
=229	=229	=229	=229
2G\	2d\	2g\	2b-\
2F\	2d\	1a	2a/
1G	2d\	.	1b-
.	2d\	2g\	.
=230	=230	=230	=230
0D	1f	2.a\	1a
.	.	4f\	.
.	1d	1f	2r
.	.	.	2a/
=231	=231	=231	=231
0r	1g	0r	1b-
.	2.f\	.	1a
.	4e\	.	.
=232	=232	=232	=232
0r	2d\	0r	1f
.	2c\	.	.
.	2B-\	.	2g/
.	2A/	.	2a/
=233	=233	=233	=233
0r	2B-\	0r	2d/
.	2c\	.	1g
.	1A	.	.
.	.	.	2f#i/
=234	=234	=234	=234
0r	1G	2r	1g
.	.	1d	.
.	1F	.	1r
.	.	2f\	.
=235	=235	=235	=235
2r	1G	4e\	2r
.	.	4d\	.
1C	.	4c\	1e
.	.	4B-\	.
.	1A	2A/	.
2D\	.	2A/	2f/
=236	=236	=236	=236
2E\	0c	1G	2g/
2E\	.	.	2g/
1E	.	2r	1g
.	.	2G/	.
=237	=237	=237	=237
1D	1d	1A	1f
2E\	2.G/	2G/	2g/
[2G\	.	2d\	[2b-\
.	4A/	.	.
=238	=238	=238	=238
2G\]	2B-\	1e	4b-\]
.	.	.	4a/
2C/	2c\	.	1g
1D	1A	1d	.
.	.	.	2f#i/
=239	=239	=239	=239
1E	[0G	1r	1g
1C	.	2.e\	2r
.	.	.	[2gg\
.	.	4f\	.
=240	=240	=240	=240
0r	0G]	1g	4gg\]
.	.	.	4ff\
.	.	.	4ee\
.	.	.	4dd\
.	.	1g	1ee
=241	=241	=241	=241
0r	0r	1g	2dd\
.	.	.	2ee\
.	.	1f	2ff\
.	.	.	4ee\
.	.	.	4dd\
=242	=242	=242	=242
2.A\	0r	1a	1cc
4B-\	.	.	.
1c	.	2a\	1r
.	.	[2g\	.
=243	=243	=243	=243
1c	0g	4g\]	0r
.	.	4f\	.
.	.	4e\	.
.	.	4d\	.
1c	.	2e\	.
.	.	2e\	.
=244	=244	=244	=244
1B-	1g	1d	0r
1d	1f	1r	.
=245	=245	=245	=245
1c	1e	0r	0r
2d\	2f\	.	.
[2B-\	[2d\	.	.
=246	=246	=246	=246
2B-\]	2d\]	2r	1r
4A\	1g	1d	.
4G\	.	.	.
2A\	.	.	1a
2B-\	2f#i\	2c\	.
=247	=247	=247	=247
1G	2g\	2d\	1b-
.	2g\	2G/	.
4D\	[1f	1d	2a/
4E\	.	.	.
4F\	.	.	2a/
4G\	.	.	.
=248	=248	=248	=248
4A\	2f\]	0r	2a/
4B-\	.	.	.
4c\	2e\	.	2g/
8B-\L	.	.	.
8c\J	.	.	.
2d\	2d\	.	2f/
2A\	2c\	.	[2a/
=249	=249	=249	=249
2B-\	2d\	0r	4a/]
.	.	.	4g/
2c\	2e\	.	1g
1A	2c\	.	.
.	2c\	.	2f#i/
=250	=250	=250	=250
1G	1B-	1r	1g
2C/	1r	2.e\	2r
[2c\	.	.	[2g/
.	.	4f\	.
=251	=251	=251	=251
2c\]	0r	2g\	4g/]
.	.	.	4a/
4B-\	.	2g\	4b-\
4A\	.	.	4cc\
1G	.	1g	1dd
=252	=252	=252	=252
1C	1c	2r	1ee
.	.	2g\	.
1r	2d\	2f\	2dd\
.	2d\	2g\	[2gg\
=253	=253	=253	=253
0r	1d	1a	2gg\]
.	.	.	2ff\
.	1G	1g	2gg\
.	.	.	2dd\
=254	=254	=254	=254
0r	1c	1e	2ee\
.	.	.	1cc
.	2A/	2f\	.
.	2B-\	2d\	2dd\
=255	=255	=255	=255
0r	2c\	2e\	2cc\
.	4B-\	2f\	1ff
.	4A/	.	.
.	1G	1g	.
.	.	.	2ee\
=256	=256	=256	=256
1r	0F	1a	0ff
2r	.	2.a\	.
[2D\	.	.	.
.	.	4g\	.
=257	=257	=257	=257
2D\]	2r	2f\	1r
2C/	1G	2e\	.
2D\	.	2d\	2r
2D\	2F/	[2a\	[2dd\
=258	=258	=258	=258
1E	1G	4a\]	2dd\]
.	.	4g\	.
.	.	1g	2cc\
1D	1A	.	2dd\
.	.	2f\	2dd\
=259	=259	=259	=259
2C/	1c	2g\	1ee
2C/	.	2.G/	.
1G	1B-	.	2dd\
.	.	4A/	.
.	.	4B-\	2g/
.	.	4c\	.
=260	=260	=260	=260
[0D	2.A/	[0d	2f/
.	.	.	2.a/
.	4G/	.	.
.	2A/	.	.
.	.	.	4g/
.	[2B-\	.	4f/
.	.	.	4e/
=261	=261	=261	=261
0D]	2B-\]	0d]	2d/
.	4A/	.	1g
.	4G/	.	.
.	1A	.	.
.	.	.	2f#i/
=262	=262	=262	=262
1E	0G	1r	1g
1C	.	1g	1r
=263	=263	=263	=263
0r	0r	1a	1cc
.	.	1g	1dd
=264	=264	=264	=264
1c	0r	1e	1cc
1d	.	2f\	1a
.	.	2d\	.
=265	=265	=265	=265
2c\	1r	2e\	2r
2A\	.	2a\	2cc\
1B-	1d	2a\	1dd
.	.	2g\	.
=266	=266	=266	=266
1A	1e	0a	1cc
1d	1f	.	2a/
.	.	.	2ff\
=267	=267	=267	=267
1c	1g	0r	1ee
1B-	2r	.	1dd
.	2g\	.	.
=268	=268	=268	=268
2.A\	1a	0r	2cc\
.	.	.	2ff\
4B-\	.	.	.
2c\	2g\	.	2ee\
2d\	2f\	.	[2dd\
=269	=269	=269	=269
1A	1e	1a	2dd\]
.	.	.	2cc#i\
2r	2d\	2f\	1dd
2d\	2f\	[2a\	.
=270	=270	=270	=270
2c\	2e\	4a\]	0r
.	.	4g\	.
2B-\	1d	1g	.
1A	.	.	.
.	2c\	2f#i\	.
=271	=271	=271	=271
0G	0d	1g	2r
.	.	.	1dd
.	.	1r	.
.	.	.	2b-\
=272	=272	=272	=272
1A	0r	2e\	2cc\
.	.	2f\	2a/
1G	.	1g	2b-\
.	.	.	2g/
=273	=273	=273	=273
1E	0r	1g	2r
.	.	.	2gg\
1F	.	1a	4ff\
.	.	.	4ee\
.	.	.	4dd\
.	.	.	4cc\
=274	=274	=274	=274
2G\	1d	2g\	2b-\
2D\	.	2f\	4a/
.	.	.	4b-\
2E\	1c	1e	1g
2C/	.	.	.
=275	=275	=275	=275
[0D	1A	[0d	1.f
.	1B-	.	.
.	.	.	2g/
=276	=276	=276	=276
0D_	1A	0d_	1a
.	2G/	.	2r
.	[2A/	.	2a/
=277	=277	=277	=277
0D]	4A/]	0d]	2f/
.	4G/	.	.
.	1G	.	2g/
.	.	.	1a
.	2F#i/	.	.
=278	=278	=278	=278
2.G\	1G	2r	1d
.	.	2.d\	.
4A\	.	.	.
4B-\	1r	.	1r
4c\	.	4e\	.
2d\	.	4f\	.
.	.	4g\	.
=279	=279	=279	=279
2A\	0r	2a\	0r
1d	.	2.b-\	.
.	.	4a\	.
2c\	.	[2a\	.
=280	=280	=280	=280
2d\	1B-	2a\]	1dd
2B-\	.	2g\	.
1A	1c	2a\	1cc
.	.	2f\	.
=281	=281	=281	=281
0G	1d	1g	1.b-
.	1G	2r	.
.	.	2g\	2cc\
=282	=282	=282	=282
0r	1B-	2f\	1dd
.	.	2g\	.
.	2c\	2a\	2cc\
.	[2d\	[2f\	[2b-\
=283	=283	=283	=283
0r	2d\]	2f\]	4b-\]
.	.	.	4a/
.	2c\	1e	1a
.	1B-	.	.
.	.	2d\	2g/
=284	=284	=284	=284
2r	0A	2e\	0a
2.D\	.	2.f\	.
4E\	.	4e\	.
4F\	.	2d\	.
4G\	.	.	.
=285	=285	=285	=285
4A\	0r	4c\	0r
4B-\	.	4d\	.
4c\	.	4e\	.
4d\	.	4f\	.
4e\	.	4g\	.
4c\	.	4a\	.
2d\	.	[2b-\	.
=286	=286	=286	=286
2G\	2r	4b-\]	2r
.	.	4a\	.
2B-\	2B-\	1g	2dd\
1A	1c	.	2cc\
.	.	2f#i\	2a/
=287	=287	=287	=287
1G	1d	1g	2b-\
.	.	.	2g/
1E	1G	2r	1r
.	.	2g\	.
=288	=288	=288	=288
1D	1B-	2f\	2r
.	.	2d\	2dd\
2r	2c\	2e\	2cc\
[2D\	[2d\	[2f\	2a/
=289	=289	=289	=289
4D\]	2d\]	1f]	2b-\
4E\	.	.	.
2F\	2c\	.	1a
1G	1B-	1d	.
.	.	.	2g/
=290	=290	=290	=290
1D	1A	2.d\	2a/
.	.	.	1dd
.	.	4c\	.
1r	1r	2B-\	.
.	.	2A/	2cc\
=291	=291	=291	=291
2r	2r	2G/	2b-\
2.D\	1d	2.F/	4a/
.	.	.	4g/
.	.	.	2b-\
4E\	.	4G/	.
2F\	2c\	4A/	2a/
.	.	8G/L	.
.	.	8A/J	.
=292	=292	=292	=292
2G\	2B-\	2B-\	2d/
2E\	2G/	2c\	1g
1D	1A	1d	.
.	.	.	2f#i/
=293	=293	=293	=293
1r	1G	2r	2g/
.	.	2d\	2.d/
2r	1d	2.f\	.
.	.	.	4e/
2D\	.	.	4f/
.	.	4e\	4g/
=294	=294	=294	=294
1F	1c	1.d	4a/
.	.	.	4b-\
.	.	.	4cc\
.	.	.	4a/
1G	1B-	.	2b-\
.	.	4c\	4a/
.	.	4B-\	4g/
=295	=295	=295	=295
1D	1A	1c	2f/
.	.	.	2d/
1E	2G/	[1dl	[1g
.	2c\	.	.
=296	=296	=296	=296
0D	2B-\	0d_	2g/]
.	4A/	.	4f#i/
.	4G/	.	4e/
.	1A	.	1f#i
=297	=297	=297	=297
0Gl	0Gl	0d]	0gl
==	==	==	==
*-	*-	*-	*-
!!!RDF**kern: l=long note in original notation
!!!RDF**kern: i=editorial accidental
!!!ENC:	Megan K. Eagen 2014/09/22
!!!END:	2014/09/22/
!!!EED:	Jesse Rodin
!!!EEV:	2014/10/12/
!!!ONB:	Translated from MusicXML and edited on 2014/10/12/ by Craig Sapp
!!muse2ps: C^@{COM}^i2I150v85,85,85,150Q16
